epam-assets/icon-sources/18/table-table.svg

<svg width="18" height="18" viewBox="0 0 18 18" fill="none" xmlns="http://www.w3.org/2000/svg">
<g id="18/table-table">
<path id="icon" fill-rule="evenodd" clip-rule="evenodd" d="M3.75 3H14.25C15.0784 3 15.75 3.67157 15.75 4.5V13.5C15.75 14.3284 15.0784 15 14.25 15H3.75C2.92157 15 2.25 14.3284 2.25 13.5V4.5C2.25 3.67157 2.92157 3 3.75 3ZM3.75 6V9H8.25V6H3.75ZM9.75 6V9H14.25V6H9.75ZM3.75 10.5V13.5H8.25V10.5H3.75ZM9.75 10.5V13.5H14.25V10.5H9.75Z" fill="#6C6F80"/>
</g>
</svg>

<svg xmlns="http://www.w3.org/2000/svg" width="18" height="18" fill="none" viewBox="0 0 18 18">
  <path fill="#6C6F80" fill-rule="evenodd" d="M3.75 3h10.5a1.5 1.5 0 0 1 1.5 1.5v9a1.5 1.5 0 0 1-1.5 1.5H3.75a1.5 1.5 0 0 1-1.5-1.5v-9A1.5 1.5 0 0 1 3.75 3Zm0 3v3h4.5V6h-4.5Zm6 0v3h4.5V6h-4.5Zm-6 4.5v3h4.5v-3h-4.5Zm6 0v3h4.5v-3h-4.5Z" clip-rule="evenodd"/>
</svg>
